home/.icons/Gruvbox-Plus-Dark/emblems/16/emblem-generic.svg

<svg xmlns="http://www.w3.org/2000/svg" width="16" height="16" version="1.1" viewBox="0 0 16 16">
 <circle style="fill:#282828" cx="8" cy="8" r="7"/>
 <path style="fill:#ebdbb2" d="M 7 3 L 7 5.5859375 L 5.171875 3.7578125 L 3.7578125 5.171875 L 5.5859375 7 L 3 7 L 3 9 L 5.5859375 9 L 3.7578125 10.828125 L 5.171875 12.242188 L 7 10.414062 L 7 13 L 9 13 L 9 10.414062 L 10.828125 12.242188 L 12.242188 10.828125 L 10.414062 9 L 13 9 L 13 7 L 10.414062 7 L 12.242188 5.171875 L 10.828125 3.7578125 L 9 5.5859375 L 9 3 L 7 3 z"/>
</svg>

<svg width="16" height="16" version="1.1" xmlns="http://www.w3.org/2000/svg">
  <circle cx="8" cy="8" r="7" fill="#504945"/>
  <path d="m7 3v2.586l-1.828-1.828-1.414 1.414 1.828 1.828h-2.586v2h2.586l-1.828 1.828 1.414 1.414 1.828-1.828v2.586h2v-2.586l1.828 1.828 1.414-1.414-1.828-1.828h2.586v-2h-2.586l1.828-1.828-1.414-1.414-1.828 1.828v-2.586h-2z" fill="#ebdbb2"/>
</svg>
